resources/haticons/SVG/tree.svg

<!-- Generated by IcoMoon.io -->
<svg version="1.1" xmlns="http://www.w3.org/2000/svg" width="24" height="24" viewBox="0 0 24 24">
<title>tree</title>
<path d="M22.875 18h-0.375v-4.875c0-1.447-1.178-2.625-2.625-2.625h-6.375v-3h0.375c0.619 0 1.125-0.506 1.125-1.125v-3.75c0-0.619-0.506-1.125-1.125-1.125h-3.75c-0.619 0-1.125 0.506-1.125 1.125v3.75c0 0.619 0.506 1.125 1.125 1.125h0.375v3h-6.375c-1.447 0-2.625 1.178-2.625 2.625v4.875h-0.375c-0.619 0-1.125 0.506-1.125 1.125v3.75c0 0.619 0.506 1.125 1.125 1.125h3.75c0.619 0 1.125-0.506 1.125-1.125v-3.75c0-0.619-0.506-1.125-1.125-1.125h-0.375v-4.5h6v4.5h-0.375c-0.619 0-1.125 0.506-1.125 1.125v3.75c0 0.619 0.506 1.125 1.125 1.125h3.75c0.619 0 1.125-0.506 1.125-1.125v-3.75c0-0.619-0.506-1.125-1.125-1.125h-0.375v-4.5h6v4.5h-0.375c-0.619 0-1.125 0.506-1.125 1.125v3.75c0 0.619 0.506 1.125 1.125 1.125h3.75c0.619 0 1.125-0.506 1.125-1.125v-3.75c0-0.619-0.506-1.125-1.125-1.125zM4.5 22.5h-3v-3h3v3zM13.5 22.5h-3v-3h3v3zM10.5 6v-3h3v3h-3zM22.5 22.5h-3v-3h3v3z"></path>
</svg>

<svg xmlns="http://www.w3.org/2000/svg" width="24" height="24"><path d="M22.875 18H22.5v-4.875a2.629 2.629 0 0 0-2.625-2.625H13.5v-3h.375C14.494 7.5 15 6.994 15 6.375v-3.75c0-.619-.506-1.125-1.125-1.125h-3.75C9.506 1.5 9 2.006 9 2.625v3.75c0 .619.506 1.125 1.125 1.125h.375v3H4.125A2.629 2.629 0 0 0 1.5 13.125V18h-.375C.506 18 0 18.506 0 19.125v3.75C0 23.494.506 24 1.125 24h3.75C5.494 24 6 23.494 6 22.875v-3.75C6 18.506 5.494 18 4.875 18H4.5v-4.5h6V18h-.375C9.506 18 9 18.506 9 19.125v3.75C9 23.494 9.506 24 10.125 24h3.75c.619 0 1.125-.506 1.125-1.125v-3.75c0-.619-.506-1.125-1.125-1.125H13.5v-4.5h6V18h-.375c-.619 0-1.125.506-1.125 1.125v3.75c0 .619.506 1.125 1.125 1.125h3.75c.619 0 1.125-.506 1.125-1.125v-3.75c0-.619-.506-1.125-1.125-1.125zM4.5 22.5h-3v-3h3v3zm9 0h-3v-3h3v3zM10.5 6V3h3v3h-3zm12 16.5h-3v-3h3v3z"/></svg>
